configs/network-icons/novastro-dark.svg

<svg width="30" height="30" viewBox="0 0 30 30" fill="none" xmlns="http://www.w3.org/2000/svg">
<path d="M29.682 6.50784C29.3521 5.93099 28.6461 5.24461 27.1512 5.24461C25.7782 5.24461 23.6929 5.82998 20.9528 6.98612C19.2255 5.68638 17.1683 5 15.0003 5C9.49932 5 5.0246 9.50405 5.0246 15.0413C5.0246 15.4235 5.0465 15.8153 5.09033 16.2048C4.56324 16.61 4.07024 17.0055 3.62471 17.3816C2.65454 18.2006 1.44698 19.2825 0.709308 20.3973C-0.0782765 21.5863 -0.210961 22.656 0.316125 23.5748C0.647225 24.1517 1.35569 24.838 2.84687 24.838C4.21997 24.838 6.30517 24.2527 9.04528 23.0965C10.7738 24.3963 12.8311 25.0827 15.0003 25.0827C20.5 25.0827 24.9747 20.5786 24.9747 15.0413C24.9747 14.658 24.9528 14.2685 24.909 13.8803C25.4093 13.4957 25.8804 13.1185 26.3113 12.7558L26.3771 12.7011C26.3978 12.6828 26.4196 12.6658 26.4403 12.6475H26.4428C27.4008 11.8333 28.5706 10.7746 29.2912 9.68538C30.0788 8.49517 30.2103 7.42667 29.6844 6.50784H29.682ZM7.17799 17.1346C8.8116 15.9358 10.7337 14.6665 12.741 13.4617L16.2237 19.5357L16.9345 19.128C16.9978 19.0927 17.0623 19.055 17.1244 19.0184L17.2413 18.9502C17.4738 18.8152 17.7051 18.6789 17.9339 18.5438L18.1141 18.4379C19.8414 17.4083 21.4787 16.352 22.9808 15.2969C22.8469 19.6062 19.3009 23.0831 14.9991 23.0831C13.5663 23.0831 12.1616 22.6962 10.9357 21.9635C10.4087 21.6471 9.9181 21.2723 9.47985 20.8488L9.39706 20.7685L9.29118 20.8159C8.72881 21.0666 8.18223 21.3003 7.66488 21.5084C6.08488 22.1436 4.73001 22.5708 3.74401 22.746C3.25101 22.8337 2.85052 22.8592 2.5535 22.8215C2.28691 22.7874 2.11284 22.7046 2.03981 22.5769C1.96555 22.4479 1.98138 22.2556 2.08606 22.0049C2.20171 21.7275 2.42447 21.3903 2.74705 21.0045C3.391 20.2342 4.43664 19.2667 5.77321 18.2079C6.19561 17.8708 6.66794 17.5106 7.17799 17.1358V17.1346ZM22.8214 12.9506C21.2024 14.1396 19.2839 15.4064 17.2656 16.6173L13.783 10.5446L13.4933 10.7101C13.3034 10.8184 13.1196 10.9243 12.937 11.0302L12.758 11.1336C12.4671 11.3015 12.1774 11.4719 11.8937 11.6423C10.1396 12.6901 8.50115 13.7489 7.0185 14.7894C7.15244 10.4789 10.6984 7.00072 15.0015 7.00072C16.433 7.00072 17.8377 7.38772 19.0636 8.12156C19.5834 8.43067 20.074 8.80551 20.5219 9.23632L20.6046 9.31664L20.7093 9.26918C21.2681 9.01969 21.8147 8.78725 22.3344 8.57672C23.9145 7.94145 25.2693 7.51429 26.2553 7.33904C26.7483 7.25142 27.15 7.22586 27.4458 7.26359C27.7124 7.29766 27.8865 7.38042 27.9595 7.5082C28.0338 7.6372 28.0179 7.82948 27.9133 8.08018C27.7976 8.35766 27.5749 8.69476 27.2523 9.08054C26.6083 9.85211 25.5627 10.8196 24.2261 11.8796C23.7757 12.2374 23.3022 12.5988 22.8214 12.9518V12.9506Z" fill="url(#paint0_linear_11475_29821)"/>
<defs>
<linearGradient id="paint0_linear_11475_29821" x1="15" y1="5" x2="15" y2="25.0827" gradientUnits="userSpaceOnUse">
<stop stop-color="#21F2D9"/>
<stop offset="1" stop-color="#35DAEF"/>
</linearGradient>
</defs>
</svg>

<svg xmlns="http://www.w3.org/2000/svg" fill="none" viewBox="0 0 30 30">
  <path fill="url(#novastro-dark_svg__a)" d="M29.682 6.508c-.33-.577-1.036-1.263-2.53-1.263-1.374 0-3.46.585-6.2 1.741A9.821 9.821 0 0 0 15 5C9.5 5 5.025 9.504 5.025 15.041c0 .383.021.774.065 1.164-.527.405-1.02.8-1.465 1.177-.97.819-2.178 1.9-2.916 3.015-.787 1.19-.92 2.259-.393 3.178.331.577 1.04 1.263 2.53 1.263 1.374 0 3.46-.585 6.2-1.742A9.828 9.828 0 0 0 15 25.084c5.5 0 9.975-4.504 9.975-10.042 0-.383-.022-.773-.066-1.16.5-.385.971-.763 1.402-1.125l.066-.055.063-.053h.003c.958-.815 2.128-1.873 2.848-2.963.788-1.19.92-2.258.393-3.177h-.002ZM7.178 17.135a73.68 73.68 0 0 1 5.563-3.673l3.483 6.074.71-.408a5.88 5.88 0 0 0 .19-.11l.117-.068c.233-.135.464-.271.693-.406l.18-.106a77.897 77.897 0 0 0 4.867-3.141c-.134 4.31-3.68 7.786-7.982 7.786a7.92 7.92 0 0 1-5.52-2.234l-.082-.08-.106.047c-.562.25-1.109.484-1.626.692-1.58.636-2.935 1.063-3.921 1.238-.493.088-.893.113-1.19.076-.267-.035-.441-.117-.514-.245-.074-.13-.059-.321.046-.572.116-.277.338-.615.661-1 .644-.77 1.69-1.738 3.026-2.797a44.79 44.79 0 0 1 1.405-1.072v-.001Zm15.643-4.184a73.169 73.169 0 0 1-5.555 3.666l-3.483-6.072-.29.165c-.19.108-.373.214-.556.32l-.179.104a79.508 79.508 0 0 0-5.74 3.656C7.153 10.478 10.699 7 15.003 7a7.91 7.91 0 0 1 4.062 1.122 8.05 8.05 0 0 1 1.458 1.114l.083.08.104-.047c.56-.25 1.106-.482 1.625-.692 1.58-.636 2.935-1.063 3.921-1.238.493-.088.895-.113 1.19-.075.267.034.442.116.514.244.075.13.059.321-.046.572-.115.278-.338.615-.66 1-.645.772-1.69 1.74-3.027 2.8-.45.357-.924.719-1.405 1.072v-.001Z"/>
  <defs>
    <linearGradient id="novastro-dark_svg__a" x1="15" x2="15" y1="5" y2="25.083" gradientUnits="userSpaceOnUse">
      <stop stop-color="#21F2D9"/>
      <stop offset="1" stop-color="#35DAEF"/>
    </linearGradient>
  </defs>
</svg>
